images/linkedin.svg

<svg viewBox="0 0 100 100" xmlns="http://www.w3.org/2000/svg"><circle cx="50" cy="50" fill="#0399ff" r="48"/><path d="m82.539 1h-65.078c-9.053 0-16.461 7.408-16.461 16.461v65.078c0 9.053 7.408 16.461 16.461 16.461h65.078c9.053 0 16.461-7.408 16.461-16.461v-65.078c0-9.053-7.408-16.461-16.461-16.461zm-44.789 79.625h-12.25v-42.875h12.25zm-6.125-49c-3.383 0-6.125-2.742-6.125-6.125s2.742-6.125 6.125-6.125 6.125 2.742 6.125 6.125-2.742 6.125-6.125 6.125zm49 49h-12.25v-24.5c0-3.383-2.742-6.125-6.125-6.125s-6.125 2.742-6.125 6.125v24.5h-12.25v-42.875h12.25v7.606c2.526-3.47 6.389-7.606 10.719-7.606 7.612 0 13.782 6.856 13.782 15.312z" fill="#f7f7f7" transform="matrix(.5 0 0 .5 25 25)"/></svg>

<?xml version="1.0" encoding="utf-8"?>
<!-- Generate more at customizr.net -->
<!DOCTYPE svg PUBLIC "-//W3C//DTD SVG 1.1//EN" "http://www.w3.org/Graphics/SVG/1.1/DTD/svg11.dtd">
<svg id="linkedin" class="custom-icon" version="1.1" xmlns="http://www.w3.org/2000/svg" xmlns:xlink="http://www.w3.org/1999/xlink" viewBox="0 0 100 100"><circle class="outer-shape" cx="50" cy="50" r="48" style="opacity: 1; fill: rgb(3, 153, 255);"></circle>
	<path class="inner-shape" style="opacity:1;fill:#f7f7f7;" transform="translate(25,25) scale(0.5)" d="M82.539,1H17.461C8.408,1,1,8.408,1,17.461v65.078C1,91.592,8.408,99,17.461,99h65.078C91.592,99,99,91.592,99,82.539 V17.461C99,8.408,91.592,1,82.539,1z M37.75,80.625H25.5V37.75h12.25V80.625z M31.625,31.625c-3.383,0-6.125-2.742-6.125-6.125 s2.742-6.125,6.125-6.125s6.125,2.742,6.125,6.125S35.008,31.625,31.625,31.625z M80.625,80.625h-12.25v-24.5 c0-3.383-2.742-6.125-6.125-6.125s-6.125,2.742-6.125,6.125v24.5h-12.25V37.75h12.25v7.606c2.526-3.47,6.389-7.606,10.719-7.606 c7.612,0,13.782,6.856,13.782,15.312L80.625,80.625L80.625,80.625z"></path>
</svg>
